X: 84
M:2/4
L:1/16
K:F
v(C2|\
uc2|\
.f2.c2.f2.A2 | {g}fefa .g.e.c2 | kg2kc2kg2kc2 | {a}g^fga .g.e.c2 |
.b.b.b.g .a.a.a.f | {a}gfeg fcAc | dfeg {a}fefd | cbge f2  :|


